svgs/wild_rift.svg

<svg width="192" height="192" viewBox="0 0 192 192" xmlns="http://www.w3.org/2000/svg">
    <path d="M86.6517 139.766H80.6517C80.6517 143.079 83.338 145.766 86.6517 145.766V139.766ZM47.1576 22.2114L51.4138 26.4405L53.1576 24.6855V22.2114H47.1576ZM47.1576 22.6343L52.4658 19.8373L50.7781 16.6343H47.1576V22.6343ZM54.5102 36.5886H60.5102C60.5102 35.6139 60.2727 34.6539 59.8184 33.7916L54.5102 36.5886ZM54.5102 155.411L59.8006 158.242C60.2664 157.371 60.5102 156.399 60.5102 155.411H54.5102ZM47.1576 169.154V175.154H50.7522L52.448 171.985L47.1576 169.154ZM47.1576 169.577H53.1576V167.103L51.4138 165.348L47.1576 169.577ZM136.86 169.577L141.116 173.806L142.23 172.685L142.647 171.161L136.86 169.577ZM144.842 140.4L140.586 136.171L139.472 137.292L139.055 138.817L144.842 140.4ZM144.842 139.977H138.842V145.977H144.842V139.977ZM144.422 133.766H86.6517V145.766H144.422V133.766ZM92.6517 139.766V22.4229H80.6517V139.766H92.6517ZM92.6517 22.4229C92.6517 17.4412 88.0811 16 86.0214 16V28C85.2634 28 84.0554 27.8088 82.8793 26.921C81.6665 26.0055 80.6517 24.4186 80.6517 22.4229H92.6517ZM86.0214 16H47.5777V28H86.0214V16ZM47.5777 16C47.5681 16 47.308 15.9976 47.0217 16.0168C46.7501 16.035 46.1222 16.0892 45.3804 16.338C44.6015 16.5994 43.409 17.1742 42.446 18.4204C41.4456 19.715 41.1576 21.1296 41.1576 22.2114H53.1576C53.1576 23.1875 52.8958 24.5228 51.9413 25.758C51.0242 26.9447 49.8974 27.4799 49.1973 27.7148C48.5343 27.9373 47.9983 27.9782 47.8251 27.9898C47.6373 28.0024 47.4823 28 47.5777 28V16ZM42.9013 17.9824C42.3337 18.5537 41 20.1041 41 22.5021C41 23.9242 41.5186 25.7311 43.074 27.1008C44.5301 28.383 46.1621 28.6343 47.1576 28.6343V16.6343C48.048 16.6343 49.6012 16.8591 51.0047 18.0951C52.5076 19.4186 53 21.1594 53 22.5021C53 24.7417 51.7714 26.0806 51.4138 26.4405L42.9013 17.9824ZM41.8493 25.4312L49.202 39.3855L59.8184 33.7916L52.4658 19.8373L41.8493 25.4312ZM48.5102 36.5886V155.411H60.5102V36.5886H48.5102ZM49.2198 152.581L41.8671 166.324L52.448 171.985L59.8006 158.242L49.2198 152.581ZM47.1576 163.154C46.1621 163.154 44.5301 163.406 43.0741 164.688C41.5186 166.057 41 167.864 41 169.286C41 171.685 42.3337 173.235 42.9013 173.806L51.4138 165.348C51.7714 165.708 53 167.047 53 169.286C53 170.629 52.5076 172.37 51.0047 173.694C49.6012 174.929 48.048 175.154 47.1576 175.154V163.154ZM41.1576 169.577C41.1576 171.621 42.1133 173.172 43.0326 174.097C43.9496 175.02 45.5077 176 47.5777 176V164C49.4377 164 50.7857 164.875 51.5451 165.639C52.3068 166.405 53.1576 167.745 53.1576 169.577H41.1576ZM47.5777 176H136.229V164H47.5777V176ZM136.229 176C138.304 176 139.712 174.994 140.159 174.657C140.672 174.27 141.089 173.833 141.116 173.806L132.603 165.348C132.42 165.533 132.627 165.307 132.93 165.079C133.112 164.941 133.465 164.694 133.969 164.472C134.487 164.245 135.262 164 136.229 164V176ZM142.647 171.161L150.63 141.983L139.055 138.817L131.072 167.994L142.647 171.161ZM149.099 144.629C149.666 144.058 151 142.508 151 140.109C151 138.687 150.481 136.88 148.926 135.51C147.47 134.228 145.838 133.977 144.842 133.977V145.977C143.952 145.977 142.399 145.752 140.995 144.517C139.492 143.193 139 141.452 139 140.109C139 137.87 140.229 136.531 140.586 136.171L149.099 144.629ZM150.842 139.977C150.842 138.895 150.554 137.481 149.554 136.186C148.591 134.94 147.399 134.365 146.62 134.104C145.878 133.855 145.25 133.801 144.978 133.782C144.692 133.763 144.432 133.766 144.422 133.766V145.766C144.518 145.766 144.363 145.768 144.175 145.756C144.002 145.744 143.466 145.703 142.803 145.48C142.102 145.246 140.976 144.71 140.059 143.524C139.104 142.289 138.842 140.953 138.842 139.977H150.842Z" fill="#000000"/>
</svg>

<svg width="192" height="192" viewBox="0 0 192 192" xmlns="http://www.w3.org/2000/svg"><path d="M86.652 139.766h-6a6 6 0 0 0 6 6v-6ZM47.158 22.211l4.256 4.23 1.744-1.755V22.21h-6Zm0 .423 5.308-2.797-1.688-3.203h-3.62v6ZM54.51 36.59h6a6 6 0 0 0-.692-2.797l-5.308 2.797Zm0 118.822 5.29 2.831c.466-.871.71-1.843.71-2.831h-6Zm-7.352 13.743v6h3.594l1.696-3.169-5.29-2.831Zm0 .423h6v-2.474l-1.744-1.755-4.256 4.229Zm89.702 0 4.256 4.229 1.114-1.121.417-1.524-5.787-1.584Zm7.982-29.177-4.256-4.229-1.114 1.121-.417 1.525 5.787 1.583Zm0-.423h-6v6h6v-6Zm-.42-6.211h-57.77v12h57.77v-12Zm-51.77 6V22.423h-12v117.343h12Zm0-117.343c0-4.982-4.57-6.423-6.63-6.423v12a5.24 5.24 0 0 1-3.143-1.079 5.636 5.636 0 0 1-2.227-4.498h12ZM86.022 16H47.577v12H86.02V16Zm-38.444 0c-.01 0-.27-.002-.556.017-.272.018-.9.072-1.642.321a6.193 6.193 0 0 0-2.934 2.082 6.19 6.19 0 0 0-1.288 3.791h12a5.81 5.81 0 0 1-1.217 3.547 5.809 5.809 0 0 1-2.744 1.957 5.469 5.469 0 0 1-1.372.275c-.188.012-.343.01-.247.01V16ZM42.9 17.982c-.567.572-1.901 2.122-1.901 4.52 0 1.422.519 3.23 2.074 4.599a6.17 6.17 0 0 0 4.084 1.533v-12c.89 0 2.443.225 3.847 1.461A5.878 5.878 0 0 1 53 22.502a5.568 5.568 0 0 1-1.586 3.939L42.9 17.982Zm-1.052 7.45 7.353 13.954 10.616-5.594-7.352-13.955-10.617 5.594Zm6.661 11.157V155.41h12V36.589h-12Zm.71 115.992-7.353 13.743 10.581 5.661 7.353-13.743-10.581-5.661Zm-2.062 10.573c-.996 0-2.628.252-4.084 1.534A6.12 6.12 0 0 0 41 169.286c0 2.399 1.334 3.949 1.901 4.52l8.513-8.458A5.569 5.569 0 0 1 53 169.286a5.88 5.88 0 0 1-1.995 4.408 5.833 5.833 0 0 1-3.847 1.46v-12Zm-6 6.423c0 2.044.955 3.595 1.875 4.52.917.923 2.475 1.903 4.545 1.903v-12c1.86 0 3.208.875 3.967 1.639a5.575 5.575 0 0 1 1.613 3.938h-12Zm6.42 6.423h88.651v-12H47.578v12Zm88.651 0c2.075 0 3.483-1.006 3.93-1.343.513-.387.93-.824.957-.851l-8.513-8.458c-.183.185.024-.041.327-.269a5.173 5.173 0 0 1 1.039-.607 5.627 5.627 0 0 1 2.26-.472v12Zm6.418-4.839 7.983-29.178-11.575-3.166-7.983 29.177 11.575 3.167Zm6.452-26.532c.567-.571 1.901-2.121 1.901-4.52a6.124 6.124 0 0 0-6.158-6.132v12c-.89 0-2.443-.225-3.847-1.46a5.88 5.88 0 0 1-1.995-4.408 5.571 5.571 0 0 1 1.586-3.938l8.513 8.458Zm1.743-4.652a6.193 6.193 0 0 0-1.288-3.791 6.189 6.189 0 0 0-2.934-2.082 6.574 6.574 0 0 0-1.642-.322c-.286-.019-.546-.016-.556-.016v12c.096 0-.059.002-.247-.01a5.484 5.484 0 0 1-1.372-.276 5.8 5.8 0 0 1-2.744-1.956 5.808 5.808 0 0 1-1.217-3.547h12Z"/></svg>
